X:1
T:Menand'un giorno
T:Menand'un giorno
T:Theodorico Sistino
T:Source : Cantiones trium vocum---Hamburgi---P.ab Ohr---1608. Editor : André Vierendeels (02/02/14).
C:Theodorico Sistino
%%score [ 1 2 3 ]
L:1/8
Q:1/4=80
M:4/4
K:F
V:1 treble nm="Soprano 1" snm="S 1"
V:2 treble nm="Soprano 2" snm="S 2"
V:3 treble-8 nm="Tenor" snm="T"
V:1
 F4 c2 c2 | A2 F2 G2 A2 | FG AB c4 | d4 c4 | B4 A2 GF | G2 A2 G4 | A2 c3 c c2 | c2 F2 f3 e | %8
w: Me- nan- d'un|gior- no gl'agn' a-|pres- * * * *|s'un fiu-|me, fiu- * *||m'e vid' un bel-|lum' in me- *|
 d2 c2 =B2 c2 | d2 _e2 d4 | c2 c2 f4- | f2 e2 d4- | d4 c4 | B8- | B4 A4 | G2 F4 E2 |[M:2/4] F4 :: %17
w: * zo di quel|on- * *|de, in me-|* zo di|_ quel|on-|||de,|
[M:4/4] z2 c2 c2 c2 | d4 c2 f2- | f2 _e2 d2 d2 | c4 c2 f2 | f2 _e2 d2 d2 | c2 f2 _e2 e2 | %23
w: che con due|bion- de trec-|* cie'al hor mi-|strin- se, che|con due bion- de|trec- cie'al hor mi-|
 d4 c2 c2 | d3 e f2 ed | c2 FG A2 B2 | c2 BA G2 F2 |1 G4 A4 :|2 G4 A4- || A8 |] %30
w: strin- se, e|mi di pin- se'un- *|vol- to'in _ _ _|me- * * * zol'|co- re,|co- re.|_|
V:2
 z8 | F4 c2 c2 | A2 F2 G2 A2 | F2 B4 A2- | A2 G2 F2 ED | E2 F4 E2 | F2 A3 A G2 | A2 c2 d3 e | %8
w: |Me- nan- d'un|gior- no gl'agn' a|pres- * s'un|_ fiu- * * *||m'e vid' un bel-|lum' in me- zo|
 f2 e2 d2 c2 |"^-natural" B2 c4 =B2 | c2 G2 d4- | d2 e2 f4- | f4 e4 | d8- | d4 c4- | c2 BA G4 | %16
w: di quel on- *||d, in me-|* zo di|_ quel|on-|||
[M:2/4] A4 ::[M:4/4] z2 A2 A2 A2 | B4 A2 A2- | AB c2 B2 B2 | A4 A2 A2 | A2 G2 B2 B2 | A2 d4 c2- | %23
w: de,|che con due|bion- de trec-|* * cie'al hor mi-|strin- se, che|con due bion- de|trec- cie'al hor|
 c2 B2 F4 | B2 F2 F2 G2 | A3 G F2 G2 | A2 GF E2 F2- |1 F2 E2 F4 :|2 F2 E2 F4- || F8 |] %30
w: _ mi- strin-|* se, e mi|di pin- se'un vol-|to'in me- * zol' co-|* * re,|(co)- * re.|_|
V:3
 z8 | z4 c4 | d2 d2 c2 A2 | Bc dB f2 F2 | B,C DB, C2 D2 | C8 | F2 F3 F E2 | F2 F2 D3 C | %8
w: |Me-|nan- d'un gior- no|gl'agn'- * * * * a|pres- * * * * s'un|fiu-|m'e vid' un bel-|lum' in me- zo|
 B,2 C2 G4 | G4 G4 | C4 D4- | D2 C2 B,4- | B,4 C4 | D4 _E4 |"^b" F6 ED | C8 |[M:2/4] F4 :: %17
w: di quel on-|de, in|me- zo|_ di quel|_ on-||||de,|
[M:4/4] z2 F2 F2 F2 | B4 F2 D2- | D2 C2 G2 B2 | F4 F2 F2 | C2 C2 B,CDE |"^b" F2 D2 CD EF | %23
w: che con due|bion- de trec-|* cie'al hor mi-|strin- se, che|con due bion- de trec- cie'al|hor mi- strin- * * *|
"^b" GA B4 A2 | B2 B,2 D2 E2 |"^b" F6 ED | C4 C4 |1 C4 F4 :|2 C4 F4- || F8 |] %30
w: , _ e mi|pin- s'un vol- ti|in _ _|me- zo|co- re|co- re.|_|

